X:1
T:Oak Cliff Road
C:Ed Yother
C:c.2012
C:http://edyother.com
K:Gdor
R:Reel
M:4/4
DGG^F (3GGG GA | BAGd cAGF | DFFE (3FFF FA | cFdF cAGF |
DGG^F (3GGG GA | BAGd cAGF | dcde fedc | AdcA GFDC :|
|: GABc (3ddd dg | fagd fdcA | cAGD FEFD | CDFG AGFD |
GABc (3ddd dg | fagd fdcA | c=Bcd fdcA |[1 GBAG FDCD :|]2 (3ccc cA GFDC ||

